icons/svg/amazon.svg

﻿<?xml version="1.0" encoding="utf-8"?>
<!DOCTYPE svg PUBLIC "-//W3C//DTD SVG 1.1//EN" "http://www.w3.org/Graphics/SVG/1.1/DTD/svg11.dtd">
<svg xmlns="http://www.w3.org/2000/svg" xmlns:xlink="http://www.w3.org/1999/xlink" version="1.1" baseProfile="full" width="24" height="24" viewBox="0 0 24.00 24.00" enable-background="new 0 0 24.00 24.00" xml:space="preserve">
	<path fill="#000000" fill-opacity="1" fill-rule="evenodd" stroke-linejoin="round" d="M 15.9305,17.0874C 15.753,17.2465 15.4972,17.2572 15.2975,17.1498C 14.4074,16.4102 14.248,16.0683 13.7616,15.3643C 12.291,16.8625 11.2493,17.3118 9.34451,17.3118C 7.08864,17.3118 5.33433,15.9199 5.33433,13.136C 5.33433,10.961 6.51228,9.48213 8.1915,8.75709C 9.64517,8.119 11.6755,8.00309 13.2291,7.82904L 13.2291,7.48107C 13.2291,6.8431 13.2793,6.08898 12.9036,5.53814C 12.5777,5.04502 11.9509,4.84203 11.3998,4.84203C 10.3779,4.84203 9.46917,5.3657 9.24629,6.4509C 9.1997,6.69233 9.02367,6.93111 8.78061,6.94342L 6.18403,6.66236C 5.96471,6.61295 5.72075,6.43711 5.78426,6.10232C 6.3808,2.9518 9.2258,2 11.7755,2C 13.079,2 14.7831,2.34798 15.8109,3.33405C 17.1141,4.55207 16.9888,6.17608 16.9888,7.94507L 16.9888,12.1192C 16.9888,13.3748 17.5103,13.9256 18,14.6023C 18.1709,14.8459 18.2095,15.1359 17.9914,15.3138L 15.9367,17.0934L 15.9305,17.0874 Z M 13.2291,10.555L 13.2291,9.9751C 11.2911,9.9751 9.24419,10.3901 9.24419,12.672C 9.24419,13.8318 9.84578,14.6151 10.8733,14.6151C 11.6253,14.6151 12.302,14.1512 12.7279,13.3971C 13.2544,12.469 13.2291,11.5991 13.2291,10.555 Z M 20.1595,19.5364C 17.9803,21.1446 14.8207,22 12.1001,22C 8.28699,22 4.85349,20.5906 2.25496,18.2442C 2.051,18.0601 2.23297,17.8083 2.4782,17.951C 5.28158,19.5824 8.74826,20.5649 12.329,20.5649C 14.7444,20.5649 17.3997,20.0636 19.8428,19.0274C 20.2112,18.871 20.5201,19.2702 20.1595,19.5364 Z M 21.0665,18.5012C 20.7876,18.1442 19.2237,18.3319 18.5213,18.416C 18.3085,18.4415 18.2755,18.2558 18.4674,18.121C 19.7148,17.2448 21.7587,17.4979 21.9963,17.7911C 22.2358,18.0871 21.9337,20.1364 20.7645,21.1145C 20.5847,21.265 20.4137,21.1847 20.4934,20.9859C 20.7564,20.329 21.3454,18.8581 21.0665,18.5012 Z "/>
</svg>

<svg xmlns="http://www.w3.org/2000/svg" version="1.1" baseProfile="full" width="24" height="24" viewBox="0 0 24.00 24.00" xml:space="preserve"><path fill="#000" fill-opacity="1" fill-rule="evenodd" stroke-linejoin="round" d="M15.93 17.087c-.177.16-.433.17-.633.063-.89-.74-1.05-1.082-1.535-1.786-1.47 1.498-2.513 1.948-4.417 1.948-2.256 0-4.01-1.392-4.01-4.176 0-2.175 1.177-3.654 2.856-4.38 1.455-.637 3.486-.753 5.04-.927v-.35c0-.637.05-1.39-.326-1.942-.326-.493-.953-.696-1.504-.696-1.022 0-1.93.524-2.154 1.61-.046.24-.222.48-.465.49l-2.596-.28c-.22-.05-.463-.225-.4-.56C6.38 2.952 9.226 2 11.774 2c1.305 0 3.01.348 4.037 1.334 1.304 1.218 1.18 2.842 1.18 4.61v4.175c0 1.255.52 1.806 1.01 2.482.17.244.21.534-.01.712l-2.053 1.78-.006-.007zm-2.7-6.532v-.58c-1.94 0-3.986.415-3.986 2.697 0 1.16.602 1.943 1.63 1.943.75 0 1.428-.464 1.854-1.218.526-.928.5-1.798.5-2.842zm6.93 8.98C17.98 21.146 14.82 22 12.1 22c-3.813 0-7.247-1.41-9.845-3.756-.204-.184-.022-.436.223-.293 2.804 1.632 6.27 2.615 9.85 2.615 2.416 0 5.072-.5 7.515-1.538.368-.156.677.243.317.51zm.907-1.034c-.28-.356-1.843-.168-2.546-.084-.212.026-.244-.16-.053-.295 1.248-.875 3.292-.622 3.53-.33.24.297-.063 2.346-1.232 3.325-.18.15-.35.07-.272-.13.263-.656.852-2.127.574-2.484z"/></svg>
